rospo-dark/16x16/actions/quickopen-class.svg

<svg height="16" viewBox="0 0 16 16" width="16" xmlns="http://www.w3.org/2000/svg"><path d="m4 1-3 4h2v3l3-4h-2zm6 0v2h-2v10h2v2h5v-5h-5v2h-1v-8h1v2h5v-5z" fill="#d3dae3"/></svg>

<?xml version="1.0" encoding="UTF-8" standalone="no"?>
<svg xmlns="http://www.w3.org/2000/svg" width="22" height="22" viewBox="0 0 22 22">
 <defs>
  <style type="text/css" id="current-color-scheme">
   .ColorScheme-Text { color:#d3dae3; } .ColorScheme-Highlight { color:#5294e2; }
  </style>
 </defs>
 <path style="fill:currentColor;opacity:1" class="ColorScheme-Text" transform="translate(3 3)" d="M 4 1 L 1 5 L 3 5 L 3 8 L 6 4 L 4 4 L 4 1 z M 10 1 L 10 3 L 8 3 L 8 13 L 10 13 L 10 15 L 15 15 L 15 10 L 10 10 L 10 12 L 9 12 L 9 4 L 10 4 L 10 6 L 15 6 L 15 1 L 10 1 z"/>
</svg>
